X: 8413
T: Cowboy, The
R: jig
M: 6/8
K: Amajor
AEFA2B|cag aec|Bcd cAB|c>dc BAF|
AEFA2B|cag aec|Bcd c2B|1 cAA A2B:|2 cAA Ace||
|:eff f2d|fag fec|cee e2c|eaf ecA|
Bde f2e|fac B2f|ecA c2B|1 cAA Ace:|2 cAA A2B||

